X:155
T:Divel Amongst the Taylors. JGi.155
M:4/4
L:1/8
Q:1/4=120
S:Joshua Gibbons MS,1823,Tealby,Lincs.
N:No indication of key in the MS
R:reel
O:Tealby,Lincolnshire
Z:VMP/R.Greig, 2009
K:A
d|gaea gaea|gaea fedc|”_A’s rather than G’s perhaps!”\
dfGf dfGf|dfGf agfe|
|gaea gaea|gaea fedc|fedc dcBA|E2G2A2:|
|:d|ceAe ceAe|ceAe fedc|dfBf dfBf|dfBf gfed|
ceAe ceAe|ceAe fedc|fedc dcBA|E2G2A2:|

